X: 1
T: Gentleman Soldier, The
M: 6/8
L: 1/8
R: jig
K: Gmaj
D| B,2D D D D| G3 B A G| A2D D2A|( G3G2 ) D |
B,D D D D D|G3B2G|A2DD2A|( G3G2 ) G |
B2BB2G|A (c2c ) zA|G2GG2B|( D3D2 ) B,|B,2D D D D |
G2AB2B|A  D D D2A|(G3G ) &quot;Chorus&quot; G A|B2B B A G |
A A A c B A|G2G ( GA ) B|( D3D ) D D |
B,2DD2D|G2AB2B|A2D D D A|( G3G2 ) |
